X: 707
P: Longways for as many as will
M: C|
L: 1/8
K: Bb
(gf) (ed) c3 B | B6 ][ (ga) |\
(ba) (ga) (ba) (ga) | (ba) (gf) (ga) (bf) |
(gf) (ed) (ed) (cB) | c6 (ef) |\
(gf) (ef) (gf) (ef) | (gf) (ed) c2 f2 |\
(gf) (ed) (cB) (cd) | B6 |]

